assets/images/ico_gp.svg

<svg width="22" height="24" viewBox="0 0 22 24" fill="none" xmlns="http://www.w3.org/2000/svg">
<path fill-rule="evenodd" clip-rule="evenodd" d="M0.571 23.6642L11.102 13.1632L14.814 16.8642L2.295 23.8052C1.819 24.0692 1.236 24.0652 0.763 23.7942L0.571 23.6642ZM10.04 12.1042L0 22.1152V2.09316L10.04 12.1042V12.1042ZM16.314 7.96716L21.219 10.6862C21.701 10.9542 22 11.4562 22 12.0002C22 12.5442 21.701 13.0462 21.219 13.3142L16.18 16.1072L12.165 12.1042L16.314 7.96716V7.96716ZM0.46 0.433164C0.55 0.346164 0.651 0.270164 0.763 0.206164C1.236 -0.0648356 1.819 -0.0688356 2.295 0.195164L14.948 7.21016L11.102 11.0452L0.46 0.433164Z" fill="black"/>
</svg>

<svg width="22" height="24" fill="none" xmlns="http://www.w3.org/2000/svg"><path fill-rule="evenodd" clip-rule="evenodd" d="M.571 23.664l10.531-10.5 3.712 3.7-12.519 6.941a1.563 1.563 0 01-1.532-.01l-.192-.13zm9.469-11.56L0 22.115V2.093l10.04 10.011zm6.274-4.137l4.905 2.72c.482.267.781.77.781 1.313 0 .544-.299 1.046-.781 1.314l-5.039 2.793-4.015-4.003 4.149-4.137zM.46.433A1.563 1.563 0 012.295.195L14.948 7.21l-3.846 3.835L.46.433z" fill="#000"/></svg>
